build/images/icon/insta.svg

<svg width="40" height="40" viewBox="0 0 40 40" fill="none" xmlns="http://www.w3.org/2000/svg">
<path d="M36.3562 38.7323C33.2901 38.725 30.2241 38.791 27.158 38.9048C24.092 39.0112 21.0259 39.1873 17.9599 39.323C16.4287 39.3854 14.8938 39.4588 13.3627 39.4955L11.0641 39.5615L8.76552 39.5982C7.2344 39.6166 5.69947 39.6092 4.16835 39.6019L3.59465 39.5982H3.45028H3.37809L3.27551 39.5946C3.13873 39.5872 3.00576 39.5835 2.86898 39.5579C2.32948 39.4808 1.81277 39.268 1.38345 38.9561C0.509604 38.3434 -0.0185008 37.3124 0.000495762 36.2777C0.14487 30.3557 0.517203 24.4337 0.577992 18.5154C0.612186 15.5544 0.608387 12.5934 0.558996 9.63242C0.5362 8.15376 0.505805 6.67143 0.464013 5.19277L0.448815 4.63873C0.445016 4.46995 0.433618 4.23512 0.467812 4.01131C0.528601 3.56734 0.691972 3.13071 0.961723 2.75646C1.48223 2.00062 2.40546 1.50529 3.37429 1.48327C6.44034 1.39155 9.50639 1.27046 12.5724 1.20075C15.6385 1.1237 18.7045 1.08701 21.7706 1.04298L30.9687 0.932903C32.4999 0.910889 34.0348 0.910889 35.5659 0.910889H36.1396H36.284H36.3562L36.4626 0.914558C36.6069 0.921896 36.7513 0.925565 36.8919 0.951249C37.4618 1.03197 38.0165 1.24478 38.48 1.57133C39.4146 2.20976 40.0149 3.30683 39.9997 4.42592L39.9541 8.86557C39.9389 10.3442 39.9275 11.8266 39.8819 13.3052L39.8288 15.525L39.7452 17.7449C39.6958 19.2235 39.6084 20.7059 39.5362 22.1845C39.3918 25.1455 39.2095 28.1065 39.0955 31.0675C39.0233 32.5462 39.0005 34.0285 38.9549 35.5071C38.9321 35.8814 38.9625 36.2373 38.9017 36.6372C38.8371 37.0225 38.6776 37.3967 38.4344 37.7086C37.9557 38.3507 37.1616 38.7397 36.3562 38.7323ZM36.3562 38.5122C37.0894 38.5085 37.8037 38.1489 38.2178 37.5692C38.4306 37.283 38.5598 36.9454 38.6054 36.6042C38.6472 36.2703 38.6168 35.8814 38.6092 35.5182C38.5636 34.0395 38.5408 32.5572 38.4686 31.0785C38.3546 28.1175 38.1722 25.1565 38.0279 22.1955C37.9557 20.7169 37.8645 19.2345 37.8189 17.7559L37.7353 15.5361L37.6821 13.3162C37.6403 11.8376 37.6251 10.3552 37.6099 8.87658L37.5644 4.43693C37.5492 4.07368 37.3744 3.71044 37.0514 3.49396C36.8957 3.38022 36.7171 3.31417 36.5309 3.28849C36.4854 3.27748 36.436 3.27748 36.3904 3.27381L36.3524 3.27014H36.2802H36.1358H35.5621C34.031 3.27014 32.4961 3.27014 30.9649 3.24813L21.7668 3.12704C18.7007 3.08668 15.6347 3.04632 12.5724 2.97294C9.50639 2.90323 6.44034 2.78215 3.37429 2.69042C2.80439 2.6684 2.2193 2.92157 1.85456 3.38021C1.6684 3.60403 1.54302 3.87555 1.48603 4.16174C1.43664 4.41491 1.44804 4.84053 1.43284 5.19644C1.38725 6.6751 1.35685 8.15743 1.33786 9.63609C1.28846 12.5971 1.28467 15.5581 1.31886 18.5191C1.38345 24.4374 1.75578 30.3594 1.89636 36.2813C1.91155 36.7326 2.15851 37.1583 2.54224 37.4041C2.72841 37.5325 2.94877 37.5985 3.16533 37.6316C3.21852 37.6426 3.27551 37.6426 3.3325 37.6462L3.37429 37.6499H3.44648H3.59085L4.16455 37.6462C5.69567 37.6389 7.2306 37.6316 8.76172 37.6499L11.0603 37.6866L13.3589 37.7527C14.89 37.7893 16.4249 37.8627 17.9561 37.9251C21.0221 38.0609 24.0882 38.237 27.1542 38.3434C30.2241 38.4535 33.2901 38.5232 36.3562 38.5122Z" fill="url(#paint0_linear)"/>
<path d="M29.3312 20.0051C29.3236 21.2563 29.1299 22.5038 28.7424 23.7256C28.3434 24.9401 27.7393 26.1362 26.8693 27.1746C25.9993 28.2093 24.8671 29.0789 23.5715 29.6256C22.2797 30.1796 20.8474 30.4291 19.4454 30.3631C18.0435 30.286 16.6758 29.9008 15.4638 29.288C14.248 28.679 13.188 27.8607 12.2762 26.9324C10.4525 25.0758 9.2671 22.6432 9.05054 20.0087C8.95556 18.6989 9.09993 17.3339 9.57485 16.0607C10.0384 14.7802 10.802 13.5987 11.7746 12.6007C13.7047 10.5974 16.558 9.34986 19.4454 9.39756C20.8816 9.41958 22.3139 9.72412 23.6095 10.3075C24.9013 10.8909 26.0258 11.7788 26.8921 12.8209C27.7621 13.8666 28.3624 15.0664 28.7613 16.2846C29.1451 17.5027 29.335 18.7539 29.3312 20.0051ZM29.1033 20.0051C29.0957 18.7833 28.7803 17.5651 28.1839 16.5084C27.6064 15.4443 26.7553 14.5491 25.8169 13.8482C24.8747 13.1438 23.8298 12.6301 22.7584 12.2705C21.687 11.9073 20.5662 11.7238 19.4416 11.7421C18.3171 11.7568 17.2077 11.966 16.159 12.3476C15.1104 12.7328 14.134 13.3199 13.2944 14.0647C12.4585 14.8132 11.7746 15.7268 11.2617 16.7285C10.7526 17.7339 10.3955 18.842 10.2967 20.0014C10.1979 21.1572 10.3347 22.357 10.7754 23.4688C11.2047 24.5805 11.8962 25.6079 12.7967 26.4224C13.6933 27.2406 14.7989 27.824 15.9463 28.1579C17.0975 28.4918 18.2905 28.5946 19.4454 28.5212C21.7554 28.3707 23.9438 27.5855 25.8435 26.1803C26.7781 25.4684 27.6254 24.5732 28.2028 23.5055C28.7955 22.4487 29.1071 21.2269 29.1033 20.0051Z" fill="url(#paint1_linear)"/>
<path d="M25.8207 20.0051C25.8169 20.8123 25.6915 21.6159 25.4407 22.4047C25.1824 23.1862 24.7949 23.9604 24.2326 24.6282C23.6703 25.296 22.9408 25.8574 22.1049 26.2096C21.2729 26.5692 20.3459 26.7306 19.4416 26.6829C18.5374 26.6316 17.6559 26.3857 16.8733 25.9895C16.0944 25.5932 15.3991 25.0758 14.814 24.4704C13.6401 23.2743 12.8726 21.7039 12.732 20.0051C12.6712 19.1612 12.7662 18.2806 13.0702 17.4587C13.3703 16.6332 13.8642 15.87 14.4911 15.2279C15.7373 13.9364 17.5762 13.1291 19.4416 13.1622C20.3687 13.1768 21.2919 13.3713 22.1277 13.7492C22.9636 14.1272 23.6855 14.6995 24.244 15.371C25.3648 16.7322 25.8207 18.4054 25.8207 20.0051ZM25.6763 20.0051C25.6725 19.2162 25.4673 18.431 25.0836 17.7486C24.7113 17.0625 24.1642 16.4864 23.5563 16.0314C22.9484 15.5765 22.2759 15.2462 21.5844 15.0151C20.893 14.7803 20.1711 14.6628 19.4454 14.6739C18.0017 14.6922 16.5617 15.1985 15.4789 16.1745C14.4113 17.1468 13.6856 18.5081 13.5451 20.0051C13.4843 20.7499 13.5717 21.5241 13.8528 22.2433C14.1302 22.9588 14.5747 23.6229 15.156 24.1476C15.7411 24.6686 16.444 25.0538 17.1886 25.2666C17.9333 25.4831 18.7008 25.5492 19.4454 25.5015C20.9348 25.4024 22.3481 24.8961 23.5715 23.9898C24.1756 23.5311 24.7227 22.9551 25.095 22.2653C25.4787 21.5792 25.6763 20.7903 25.6763 20.0051Z" fill="url(#paint2_linear)"/>
<path d="M33.499 8.55004C33.4876 9.0784 33.385 9.64711 33.0203 10.1424C32.667 10.6341 32.0021 10.9313 31.3714 10.8726C30.7294 10.8249 30.1899 10.4653 29.8061 10.0617C29.4148 9.65078 29.1451 9.13343 29.0729 8.55004C28.9931 7.97033 29.1945 7.32823 29.639 6.87693C30.0683 6.41829 30.7142 6.12477 31.3714 6.13944C31.6982 6.14678 32.0211 6.22016 32.3137 6.35592C32.6024 6.49535 32.8493 6.70815 33.0279 6.95031C33.3888 7.44931 33.499 8.02169 33.499 8.55004ZM33.423 8.55004C33.4268 8.02169 33.0887 7.54471 32.6708 7.29521C32.2529 7.04204 31.8159 6.91729 31.3714 6.92463C30.9307 6.93564 30.4938 7.07506 30.1481 7.36859C29.8137 7.66212 29.5668 8.07306 29.4908 8.55004C29.4148 9.02703 29.5934 9.55905 29.9809 9.89294C30.3684 10.2378 30.9155 10.3112 31.3714 10.2635C31.8349 10.2121 32.2605 10.0727 32.6784 9.81222C33.0925 9.55905 33.4382 9.0784 33.423 8.55004Z" fill="url(#paint3_linear)"/>
<defs>
<linearGradient id="paint0_linear" x1="-0.190838" y1="20.262" x2="39.9203" y2="20.262" gradientUnits="userSpaceOnUse">
<stop stop-color="#AF0036"/>
<stop offset="1" stop-color="#D54E4E"/>
</linearGradient>
<linearGradient id="paint1_linear" x1="11.8848" y1="12.4023" x2="26.7782" y2="27.824" gradientUnits="userSpaceOnUse">
<stop stop-color="#BAF772"/>
<stop offset="1" stop-color="#047524"/>
</linearGradient>
<linearGradient id="paint2_linear" x1="14.5669" y1="15.1008" x2="24.1747" y2="25.0495" gradientUnits="userSpaceOnUse">
<stop stop-color="#BAF772"/>
<stop offset="1" stop-color="#047524"/>
</linearGradient>
<linearGradient id="paint3_linear" x1="29.6808" y1="6.81181" x2="33.0505" y2="10.3011" gradientUnits="userSpaceOnUse">
<stop stop-color="#AF0036"/>
<stop offset="1" stop-color="#D54E4E"/>
</linearGradient>
</defs>
</svg>

<svg width="40" height="40" fill="none" xmlns="http://www.w3.org/2000/svg"><path d="M36.356 38.732a233.03 233.03 0 00-9.198.173c-3.066.106-6.132.282-9.198.418-1.531.062-3.066.136-4.597.172l-2.299.067-2.298.036c-1.532.019-3.067.011-4.598.004l-.573-.004h-.217l-.102-.003c-.137-.008-.27-.011-.407-.037a3.355 3.355 0 01-1.486-.602C.51 38.343-.019 37.312 0 36.278c.145-5.922.517-11.844.578-17.763.034-2.96.03-5.922-.019-8.883a346.112 346.112 0 00-.095-4.44L.449 4.64c-.004-.17-.015-.404.019-.628.06-.444.224-.88.494-1.255.52-.755 1.443-1.25 2.412-1.273 3.066-.091 6.132-.213 9.198-.282 3.067-.077 6.133-.114 9.199-.158l9.198-.11C32.499.91 34.035.91 35.566.91h.79l.107.004c.144.007.288.01.429.036a3.67 3.67 0 011.588.62c.935.639 1.535 1.736 1.52 2.855l-.046 4.44c-.015 1.478-.026 2.96-.072 4.44l-.053 2.219-.084 2.22c-.05 1.479-.137 2.96-.209 4.44-.144 2.96-.327 5.922-.44 8.883-.073 1.478-.095 2.96-.141 4.44-.023.373.008.73-.053 1.13a2.384 2.384 0 01-.468 1.07 2.597 2.597 0 01-2.078 1.024zm0-.22c.733-.004 1.448-.363 1.862-.943.213-.286.342-.624.387-.965.042-.334.012-.723.004-1.086-.045-1.479-.068-2.96-.14-4.44-.114-2.96-.297-5.921-.441-8.883-.072-1.478-.163-2.96-.21-4.44l-.083-2.219-.053-2.22c-.042-1.478-.057-2.96-.072-4.44l-.046-4.44a1.192 1.192 0 00-.513-.942 1.138 1.138 0 00-.52-.206c-.046-.01-.095-.01-.14-.014l-.039-.004h-.79c-1.531 0-3.066 0-4.597-.022l-9.198-.121c-3.066-.04-6.132-.08-9.195-.154-3.066-.07-6.132-.19-9.198-.283a1.875 1.875 0 00-1.52.69 1.762 1.762 0 00-.368.782c-.05.253-.038.679-.053 1.034a247.173 247.173 0 00-.095 4.44 314.68 314.68 0 00-.02 8.883c.065 5.918.438 11.84.578 17.762.016.452.263.877.646 1.123.186.128.407.194.623.228.054.01.11.01.167.014l.042.004h.217l.574-.004a281.78 281.78 0 014.597.004l2.298.037 2.299.066c1.531.036 3.066.11 4.597.172 3.066.136 6.132.312 9.198.418 3.07.11 6.136.18 9.202.17z" fill="url(#paint0_linear)"/><path d="M29.331 20.005a12.523 12.523 0 01-.589 3.72c-.399 1.215-1.003 2.411-1.873 3.45a8.838 8.838 0 01-3.297 2.45 9.418 9.418 0 01-4.127.738 10.11 10.11 0 01-3.981-1.075c-1.216-.609-2.276-1.427-3.188-2.356-1.823-1.856-3.009-4.289-3.225-6.923-.095-1.31.049-2.675.524-3.948.463-1.28 1.227-2.462 2.2-3.46 1.93-2.004 4.783-3.251 7.67-3.203a10.57 10.57 0 014.165.91 9.263 9.263 0 013.282 2.513c.87 1.046 1.47 2.245 1.87 3.464.383 1.218.573 2.469.57 3.72zm-.228 0a7.241 7.241 0 00-.92-3.497c-.577-1.064-1.428-1.959-2.366-2.66a10.864 10.864 0 00-3.059-1.578 9.836 9.836 0 00-3.316-.528 9.986 9.986 0 00-3.283.606 9.018 9.018 0 00-2.865 1.717 9.197 9.197 0 00-2.032 2.664c-.51 1.005-.867 2.113-.965 3.272-.1 1.156.038 2.356.478 3.468a7.774 7.774 0 002.022 2.953c.896.819 2.002 1.402 3.15 1.736 1.15.334 2.344.437 3.498.363 2.31-.15 4.499-.936 6.398-2.34.935-.713 1.782-1.608 2.36-2.675a7.153 7.153 0 00.9-3.5z" fill="url(#paint1_linear)"/><path d="M25.82 20.005a8.017 8.017 0 01-.38 2.4c-.258.781-.645 1.555-1.207 2.223a5.702 5.702 0 01-2.128 1.582 5.974 5.974 0 01-2.663.473 6.537 6.537 0 01-2.569-.694 7.757 7.757 0 01-2.059-1.519c-1.174-1.196-1.941-2.766-2.082-4.465a6.102 6.102 0 01.338-2.546c.3-.826.794-1.589 1.421-2.231 1.246-1.292 3.085-2.099 4.95-2.066a6.8 6.8 0 012.687.587c.836.378 1.558.95 2.116 1.622 1.12 1.361 1.577 3.034 1.577 4.634zm-.144 0a4.673 4.673 0 00-.592-2.256c-.373-.686-.92-1.263-1.528-1.718a6.959 6.959 0 00-1.972-1.016 6.347 6.347 0 00-2.139-.341c-1.443.018-2.883.524-3.966 1.5a5.967 5.967 0 00-1.934 3.831c-.06.745.027 1.52.308 2.238.277.716.722 1.38 1.303 1.905a5.238 5.238 0 002.033 1.119 6.58 6.58 0 002.256.235 7.737 7.737 0 004.127-1.512c.604-.459 1.15-1.035 1.523-1.725a4.655 4.655 0 00.581-2.26z" fill="url(#paint2_linear)"/><path d="M33.499 8.55c-.011.528-.114 1.097-.479 1.592-.353.492-1.018.79-1.649.73-.642-.047-1.181-.407-1.565-.81a2.664 2.664 0 01-.733-1.512c-.08-.58.122-1.222.566-1.673a2.35 2.35 0 011.732-.738c.327.008.65.081.943.217.288.14.535.352.714.594.36.5.471 1.072.471 1.6zm-.076 0c.004-.528-.334-1.005-.752-1.255a2.407 2.407 0 00-1.3-.37 1.95 1.95 0 00-1.223.444 1.993 1.993 0 00-.657 1.181 1.497 1.497 0 00.49 1.343c.387.345.934.418 1.39.37.464-.05.89-.19 1.307-.45.415-.254.76-.735.745-1.263z" fill="url(#paint3_linear)"/><defs><linearGradient id="paint0_linear" x1="-.191" y1="20.262" x2="39.92" y2="20.262" gradientUnits="userSpaceOnUse"><stop stop-color="#AF0036"/><stop offset="1" stop-color="#D54E4E"/></linearGradient><linearGradient id="paint1_linear" x1="11.885" y1="12.402" x2="26.778" y2="27.824" gradientUnits="userSpaceOnUse"><stop stop-color="#BAF772"/><stop offset="1" stop-color="#047524"/></linearGradient><linearGradient id="paint2_linear" x1="14.567" y1="15.101" x2="24.175" y2="25.049" gradientUnits="userSpaceOnUse"><stop stop-color="#BAF772"/><stop offset="1" stop-color="#047524"/></linearGradient><linearGradient id="paint3_linear" x1="29.681" y1="6.812" x2="33.05" y2="10.301" gradientUnits="userSpaceOnUse"><stop stop-color="#AF0036"/><stop offset="1" stop-color="#D54E4E"/></linearGradient></defs></svg>
